X:29
T:No more Stout for Tonight
R:Jig
M:6/8
L:1/8
K:Ador
Ace ~B3 | Ace ~B3 | Ace ~B3 | Bcd ~e3 |\
Ace ~B3 | Ace ~B3 |1 Ace ~B3 | dBG ~A3 :|2\
Ace aec |dBG ~A3 ||\
:cBA Ace | aec ~deg | abc' baa | bge ~d3 |\
cBA Ace | aec ~d2z| Ace aec | ~dBG ~A3 :||
cBA AGA | cBA AGA | c2e age | dcd ~e3 |\
|1 cBA AGA | cBA AGA | c2e age |dBG ~A3 :|2\
cBA ~a3 | cBA ~a3 | Ace aec | dBG ~A3 ||\
